flags/md.svg

<svg width="512" height="512" viewBox="0 0 512 512" fill="none" xmlns="http://www.w3.org/2000/svg">
<path d="M384 512L128 512L128 -1.11901e-05L384 1.11901e-05L384 512Z" fill="var(--flag-palette-yellow, #ffda44)"/>
<path d="M144 512L-5.28978e-05 512L0 -6.29444e-06L144 6.29444e-06L144 512Z" fill="var(--flag-palette-blue, #0052b4)"/>
<path d="M512 512L368 512L368 -6.29444e-06L512 6.29444e-06L512 512Z" fill="var(--flag-palette-bright-red, #d80027)"/>
<path d="M345.043 201.419H283.826C283.826 186.051 271.368 173.593 256 173.593C240.632 173.593 228.174 186.051 228.174 201.419H166.957C166.957 216.55 180.138 228.815 195.267 228.815H194.355C194.355 243.947 206.621 256.214 221.753 256.214C221.753 269.611 231.375 280.743 244.083 283.123L222.493 331.865C232.838 336.07 244.144 338.407 256 338.407C267.855 338.407 279.162 336.07 289.506 331.865L267.917 283.123C280.625 280.743 290.247 269.611 290.247 256.214C305.379 256.214 317.645 243.947 317.645 228.815H316.732C331.863 228.815 345.043 216.549 345.043 201.419Z" fill="var(--flag-palette-gold, #ff9811)"/>
<path d="M256 239.304L219.826 256V289.391L256 311.652L292.174 289.391V256L256 239.304Z" fill="var(--flag-palette-blue, #0052b4)"/>
<path d="M219.826 222.608H292.174V255.999H219.826V222.608Z" fill="var(--flag-palette-bright-red, #d80027)"/>
</svg>

<svg xmlns="http://www.w3.org/2000/svg" width="512" height="512" fill="none"><path fill="var(--flag-palette-yellow, #ffda44)" d="M384 512H128V0h256z"/><path fill="var(--flag-palette-blue, #0052b4)" d="M144 512H0V0h144z"/><path fill="var(--flag-palette-bright-red, #d80027)" d="M512 512H368V0h144z"/><path fill="var(--flag-palette-gold, #ff9811)" d="M345 201.4h-61.2a27.8 27.8 0 1 0-55.6 0H167a28 28 0 0 0 28.3 27.4h-1a27.4 27.4 0 0 0 27.5 27.4c0 13.4 9.6 24.5 22.3 27l-21.6 48.7a89 89 0 0 0 67 0L268 283a27.4 27.4 0 0 0 22.3-26.9 27.4 27.4 0 0 0 27.4-27.4h-.9a28 28 0 0 0 28.3-27.4"/><path fill="var(--flag-palette-blue, #0052b4)" d="M256 239.3 219.8 256v33.4l36.2 22.3 36.2-22.3V256z"/><path fill="var(--flag-palette-bright-red, #d80027)" d="M219.8 222.6h72.4V256h-72.4z"/></svg>
